X:1
T:Blessèd Be the Fountain
T:Henry Southwick Perkins
T:Blessèd Be the Fountain
T:Public Domain
T:Public Domain
T:Public Domain
C:Henry Southwick Perkins
Z:Public Domain
%%score ( 1 2 ) ( 3 4 )
L:1/8
M:4/4
K:D
V:1 treble 
V:2 treble 
V:3 bass 
V:4 bass 
V:1
 [DF]>[DF] [DF]>[D^E] [DF]2 [DF]>[=EG] | [FA]6 [FA]>[DF] | [CE]2 [CE]2 [DF]2 [EG]>[DF] | [CE]6 z2 | %4
w: 1.~Bless- èd be the fount- ain of|blood, To a|world of sin- ners re-|vealed;|
w: 2.~Thorn- y was the crown that He|wore, And the|cross His bo- dy o’er-|came;|
w: 3.~Fa- ther, I have wan- dered from|Thee, Oft- en|has my heart gone a-|stray;|
 [DF]>[DF] [DF]>[D^E] [DF]2 [DF]>[=EG] | [FA]6 [FA]>[DF] | [DE]2 [DE]2 [CE]2 [CF]>[CE] | D6 z2 | %8
w: Bless- èd be the dear Son of|God; On- ly|by His stripes we are|healed.|
w: Griev- ous were the sor- rows He|bore, But He|suf- fered Thus not in|vain.|
w: Crim- son do my sins seem to|me— Wa- ter|can- not wash them a-|way.|
 [GB]>[GB] [GB]>[GB] [GB]2 [GB]>[EG] | ([DF]4 [FA]2) z2 | [GB]>[GB] [GB]>[GB] (Bd)[Ec][DB] | %11
w: I’ve wan- dered far from His fold,|Bring- *|ing to my heart pain * and woe,|
w: I to that fount- ain be led,|Made *|to cleanse my sins here * be- low;|
w: sus, to the fount- ain of Thine,|Lean- *|ing on Thy prom- ise, * I go;|
 (A4 G2) z2 | [DF]>[DF] [DF]>[D^E] [DF]2 [DF]>[=EG] | [FA]6 [DF]2 | %14
w: me *|the blood of the Lamb, And I|shall be|
w: me *|the blood that He shed, And I|shall be|
w: me *|Thy wash- ing di- vine, And I|shall be|
 [DE]2 [DE]>[DE] [CE]2 [CF]>[CE] | D6 z2 ||"^Refrain" (FF F>F A>)F A>d | (GG G>G [Gc]2) z2 | %18
w: whit- er than snow. * *||||
w: whit- er than snow. Whit- er|than|snow, * * * * Whit- er than|Wash * * * *|
w: whit- er than snow. * *||||
 (EE E>E G>)E G>B | (FF F>F [FA]2) z2 | [Fd]>[Fd] [Fd]>[Fd] [Ad]2 [Ad]>[Ac] | %21
w: |||
w: in * * * * the blood of|And * * * *|shall be whit- er * than snow.|
w: |||
 (G2 G>G [DB]2) [GB]2 | [FA]2 [DF]>D [DE]2 [CF]>[CE] | (D2 B,2 [A,D]2) z2 |] %24
w: |||
w: |||
w: |||
V:2
 x8 | x8 | x8 | x8 | x8 | x8 | x8 | D6 x2 | x8 | x8 | x4 ^G2 x2 | C6 x2 | x8 | x8 | x8 | D6 x2 || %16
w: |||||||Tho’|||Wash|in|||||
w: |||||||May|||Wash|in||||the|
w: |||||||Je-|||Cleanse|by|||||
 A4- F2 x2 | c4- x4 | G4- E2 x2 | A4- x4 | x8 | B4- x4 | x7/2 D/ x4 | D4- x4 |] %24
w: ||||||||
w: the snow,|me|the Lamb,|I|||||
w: ||||||||
V:3
 [D,A,]>[D,A,] [D,A,]>[D,^G,] [D,A,]2 [D,A,]>[D,A,] | [D,D]6 [D,D]>[D,A,] | %2
w: ~ ~ ~ ~ ~ ~ ~|~ ~ ~|
 [A,,A,]2 [A,,A,]2 [D,A,]2 [C,A,]>[D,A,] | [A,,A,]6 z2 | %4
w: ~ ~ ~ ~ ~|~|
 [D,A,]>[D,A,] [D,A,]>[D,^G,] [D,A,]2 [D,A,]>[D,A,] | [D,D]6 [D,A,]>[D,A,] | %6
w: ~ ~ ~ ~ ~ ~ ~|~ ~ ~|
 [G,B,]2 [G,B,]2 A,2 [A,,A,]>[A,,G,] | [D,F,]6 z2 | [G,D]>[G,D] [G,D]>[G,D] [G,D]2 [G,D]>[G,B,] | %9
w: ~ ~ ~ ~ ~|~|~ ~ ~ ~ ~ ~ ~|
 (A,4 D2) z2 | [G,D]>[G,D] [G,D]>[G,D] (DB,)[E,A,][E,^G,] | [A,,A,]6 z2 | %12
w: ~ *|~ ~ ~ ~ ~ * ~ ~|~|
 [D,A,]>[D,A,] [D,A,]>[D,^G,] [D,A,]2 [D,A,]>[D,A,] | [D,D]6 [D,A,]2 | %14
w: ~ ~ ~ ~ ~ ~ ~|~ ~|
 [G,B,]2 [G,B,]>[G,B,] A,2 [A,,A,]>[A,,G,] | [D,F,]6 z2 || [D,D][D,D] [D,D]>[D,D] [D,D]2 z2 | %17
w: ~ ~ ~ ~ Whit- er|the|snow, whit- er than the|
 [A,,E][A,,E] [A,,E]>[A,,E] [A,,E]2 z2 | [A,C][A,C] [A,C]>[A,C] [A,C]2 z2 | %19
w: snow, Whit- er than the|snow, whit- er than the|
 [D,D][D,D] [D,D]>[D,D] [D,D]2 z2 | [D,A,]>[D,A,] [D,A,]>[D,A,] [F,A,]2 [F,D]>[F,D] | %21
w: snow, ~ ~ ~ ~|~ ~ ~ ~ of the Lamb,|
 [G,D]2 [G,D]>[G,D] [G,B,]2 [G,,D]2 | [A,,D]2 [A,,A,]>[A,,F,] [A,,A,]2 [A,,A,]>[A,,G,] | %23
w: ~ ~ ~ ~ ~|~ ~ ~ than~snow. * *|
 F,2 G,2 [D,F,]2 z2 |] %24
w: |
V:4
 x8 | x8 | x8 | x8 | x8 | x8 | x4 A,2 x2 | x8 | x8 | D,6 x2 | x4 E,2 x2 | x8 | x8 | x8 | %14
w: ||||||~|||~|~||||
 x4 A,2 x2 | x8 || x8 | x8 | x8 | x8 | x8 | x8 | x8 | D,4- x4 |] %24
w: than||||||||||

